public/images/farms/reef-bnb.svg

<svg width="160" height="160" viewBox="0 0 160 160" fill="none" xmlns="http://www.w3.org/2000/svg">
<g clip-path="url(#clip0)">
<path d="M48.045 119.028C44.8667 131.172 63.0449 146.449 88.6472 153.149C114.25 159.849 137.581 155.436 140.759 143.291C143.937 131.146 125.759 115.87 100.157 109.169C74.5546 102.469 51.2233 106.883 48.045 119.028Z" fill="#606063"/>
<path d="M136.924 149.273L152.346 132.988L42.9922 104.369L48.7128 126.187L136.924 149.273Z" fill="#606063"/>
<path d="M49.9337 108.293L8.07245 97.338C6.25796 96.8632 4.41259 97.9924 4.00962 99.8242L3.54142 101.953C2.60839 106.194 5.11954 110.433 9.28748 111.653L51.0994 123.892L49.9337 108.293Z" fill="#606063"/>
<path d="M43.2026 98.7096C39.5089 112.824 61.5267 130.811 92.3808 138.886C123.235 146.96 151.241 142.064 154.935 127.95C158.629 113.836 136.611 95.8488 105.757 87.7742C74.9028 79.6996 46.8963 84.5955 43.2026 98.7096Z" fill="url(#paint0_linear)"/>
<path fill-rule="evenodd" clip-rule="evenodd" d="M127.673 123.286C134.771 128.506 138.919 134.152 139.538 139.157L142.516 138.789C141.744 132.551 136.779 126.258 129.45 120.869C122.061 115.434 112.011 110.721 100.537 107.718C89.0628 104.716 77.9927 103.901 68.888 105.019C59.8593 106.128 52.4479 109.182 48.7196 114.242L51.1348 116.021C54.1263 111.961 60.5082 109.071 69.2536 107.997C77.9231 106.933 88.6081 107.698 99.7773 110.621C110.946 113.544 120.636 118.111 127.673 123.286Z" fill="#606063"/>
<path fill-rule="evenodd" clip-rule="evenodd" d="M56.7343 118.739C48.0136 111.615 44.7365 104.698 46.1049 99.4692C47.4733 94.2403 53.7186 89.8155 64.8112 87.8763C75.6178 85.9872 89.8893 86.7226 104.997 90.6764C120.105 94.6302 132.908 100.98 141.403 107.921C150.124 115.045 153.401 121.962 152.033 127.191C150.664 132.42 144.419 136.844 133.326 138.784C122.52 140.673 108.248 139.937 93.1403 135.984C78.0323 132.03 65.2301 125.68 56.7343 118.739ZM92.3808 138.886C61.5267 130.811 39.5089 112.824 43.2026 98.7096C46.8963 84.5955 74.9028 79.6996 105.757 87.7742C136.611 95.8488 158.629 113.836 154.935 127.95C151.241 142.064 123.235 146.96 92.3808 138.886Z" fill="#979797"/>
<path fill-rule="evenodd" clip-rule="evenodd" d="M45.1673 124.049L40.2305 104.926L43.1352 104.176L48.0721 123.299L45.1673 124.049Z" fill="url(#paint1_linear)"/>
<path fill-rule="evenodd" clip-rule="evenodd" d="M43.4691 106.189C43.4241 106.041 43.3812 105.893 43.3406 105.746C43.2656 105.473 43.1983 105.2 43.1386 104.929L42.997 104.389C42.9948 104.38 43.0025 104.372 43.0109 104.375C43.019 104.377 43.0266 104.37 43.0251 104.362C43.0236 104.353 43.0222 104.345 43.0207 104.337C42.9732 104.072 42.9333 103.807 42.9009 103.543C42.8931 103.479 42.8857 103.416 42.8788 103.352C42.8065 102.689 42.7824 102.031 42.8078 101.378C42.8079 101.378 42.8079 101.378 42.8079 101.377C42.8432 100.475 42.9734 99.5849 43.2025 98.7095C46.8962 84.5954 74.9027 79.6994 105.757 87.774C136.611 95.8486 158.629 113.836 154.935 127.95C154.706 128.826 154.383 129.666 153.972 130.469C153.972 130.469 153.972 130.47 153.972 130.47C153.528 131.338 152.981 132.163 152.337 132.945C152.332 132.951 152.326 132.958 152.321 132.964C152.319 132.967 152.318 132.969 152.318 132.972C152.318 132.977 152.322 132.982 152.327 132.983C152.332 132.984 152.335 132.989 152.336 132.993C152.336 132.996 152.335 133 152.333 133.002L151.725 133.644C151.655 133.72 151.584 133.795 151.511 133.87L150.275 135.175L150.273 135.177L138.793 147.299C131.986 156.33 111.197 159.051 88.6472 153.149C66.3446 147.312 49.6757 134.967 47.8505 123.854C47.7571 123.285 47.3667 122.8 46.8135 122.639L10.1271 111.91C5.98342 110.698 3.4722 106.499 4.36483 102.275L4.82393 100.103C5.21371 98.2581 7.06553 97.1133 8.88976 97.589L43.1386 106.52C43.3391 106.573 43.5217 106.39 43.4691 106.189ZM39.8119 102.553C39.7482 101.009 39.9029 99.4681 40.3002 97.9499C42.6255 89.0648 52.2303 83.9845 63.7779 81.9658C75.6114 79.8971 90.7702 80.751 106.516 84.8718C122.262 88.9926 135.896 95.6738 145.199 103.274C154.277 110.691 160.162 119.825 157.837 128.71C157.28 130.839 156.285 132.774 154.936 134.499C154.821 134.697 154.679 134.887 154.511 135.065L153.923 135.686C153.92 135.689 153.916 135.693 153.913 135.697C153.836 135.779 153.759 135.861 153.68 135.943C153.677 135.946 153.673 135.95 153.67 135.953L141.082 149.246C136.911 154.652 129.056 157.706 119.984 158.802C110.684 159.926 99.4667 159.082 87.8877 156.051C76.4351 153.054 66.3397 148.366 58.8095 142.91C51.73 137.78 46.4882 131.648 45.0667 125.253L9.28503 114.789C3.63618 113.137 0.212785 107.413 1.42965 101.655L1.88875 99.4823C2.63251 95.9628 6.16596 93.7783 9.64679 94.6861L39.8119 102.553Z" fill="url(#paint2_linear)"/>
<circle cx="57" cy="29" r="29" fill="#F0B90B"/>
<path d="M46.1846 28.9998L41.7476 33.4676L37.2798 28.9998L41.7476 24.532L46.1846 28.9998ZM56.9998 18.1846L64.6413 25.8261L69.1091 21.3583L61.4676 13.7476L56.9998 9.27979L52.532 13.7476L44.9213 21.3583L49.3891 25.8261L56.9998 18.1846ZM72.252 24.532L67.815 28.9998L72.2828 33.4676L76.7198 28.9998L72.252 24.532ZM56.9998 39.815L49.3583 32.1735L44.9213 36.6413L52.5628 44.2828L56.9998 48.7198L61.4676 44.252L69.1091 36.6105L64.6413 32.1735L56.9998 39.815ZM56.9998 33.4676L61.4676 28.9998L56.9998 24.532L52.532 28.9998L56.9998 33.4676Z" fill="#FFFDFA"/>
<g style="mix-blend-mode:multiply" opacity="0.1">
<path fill-rule="evenodd" clip-rule="evenodd" d="M57 55C71.3594 55 83 43.3594 83 29C83 14.6406 71.3594 3 57 3C42.6406 3 31 14.6406 31 29C31 43.3594 42.6406 55 57 55ZM57 58C73.0163 58 86 45.0163 86 29C86 12.9837 73.0163 0 57 0C40.9837 0 28 12.9837 28 29C28 45.0163 40.9837 58 57 58Z" fill="#191326"/>
</g>
<path d="M106.5 29C130.524 29 150 48.4756 150 72.5C150 96.5244 130.524 116 106.5 116C82.4756 116 63 96.5244 63 72.5C63 48.4756 82.4756 29 106.5 29Z" fill="url(#paint3_linear)"/>
<path d="M103.489 72.5382C103.348 72.5382 103.207 72.5265 103.066 72.5029C103.677 71.2104 104.265 69.9532 104.829 68.7312C105.393 67.4856 105.886 66.3459 106.309 65.312C106.732 64.278 107.073 63.3615 107.331 62.5624C107.59 61.7635 107.719 61.1407 107.719 60.6942C107.719 60.2477 107.649 59.8835 107.508 59.6014C107.367 59.2959 107.202 59.0726 107.014 58.9317C106.826 58.7671 106.615 58.6615 106.38 58.6144C106.145 58.5439 105.945 58.5087 105.78 58.5087C105.169 58.5087 104.476 58.8612 103.701 59.5662C102.949 60.2477 102.138 61.1642 101.268 62.3157C100.422 63.4672 99.5411 64.795 98.6246 66.2989C97.7317 67.7794 96.8387 69.3187 95.9457 70.9167L85.5469 89.9517C85.2884 90.4452 85.0886 90.974 84.9477 91.538C84.8067 92.1019 84.7362 92.6542 84.7362 93.1948C84.7362 93.5707 84.7831 93.9701 84.8772 94.3932C84.9946 94.8162 85.1827 95.2039 85.4411 95.5565C85.6997 95.909 86.0639 96.2027 86.5339 96.4377C87.0039 96.6728 87.6149 96.7902 88.3669 96.7902C89.2834 96.7902 90.1294 96.4612 90.9049 95.8031C91.6804 95.1452 92.4089 94.2874 93.0904 93.2299C93.7719 92.1489 94.3946 90.9387 94.9587 89.5992C95.5226 88.2362 96.0631 86.8614 96.5801 85.475C97.0971 84.0885 97.5789 82.749 98.0254 81.4564C98.4719 80.1404 98.9067 79.0007 99.3296 78.0372C100.082 80.4813 100.939 82.8077 101.903 85.0167C102.866 87.2022 103.936 89.1175 105.111 90.7625C106.286 92.4074 107.59 93.7118 109.023 94.6752C110.457 95.6387 112.02 96.1204 113.712 96.1204C115.78 96.1204 117.965 95.6035 120.268 94.5695C122.595 93.5119 124.968 91.8435 127.389 89.564C128.211 88.7884 128.787 88.0482 129.116 87.3432C129.468 86.6147 129.645 85.9802 129.645 85.4397C129.645 84.8757 129.48 84.4291 129.151 84.1003C128.822 83.7712 128.423 83.6066 127.953 83.6066C127.201 83.6066 126.46 84.018 125.732 84.8405C124.956 85.8744 124.04 86.7791 122.982 87.5547C122.089 88.2362 120.973 88.8589 119.634 89.4229C118.294 89.9869 116.767 90.2689 115.051 90.2689H114.558C114.393 90.2689 114.217 90.2571 114.029 90.2338C113.089 90.1633 112.196 89.6932 111.35 88.8237C110.504 87.9542 109.728 86.9085 109.023 85.6864C108.342 84.4409 107.754 83.1367 107.261 81.7737C106.791 80.3872 106.45 79.1417 106.239 78.0372C107.743 77.7787 109.294 77.3557 110.892 76.7682C112.513 76.1807 114.088 75.4639 115.615 74.6179C117.143 73.7719 118.576 72.8084 119.916 71.7274C121.279 70.623 122.465 69.4245 123.476 68.132C124.486 66.8159 125.285 65.4177 125.873 63.9371C126.484 62.4332 126.789 60.8587 126.789 59.2136C126.789 56.7697 126.284 54.6312 125.274 52.7982C124.287 50.9651 122.947 49.4494 121.255 48.2509C119.563 47.0289 117.613 46.1124 115.404 45.5015C113.218 44.8905 110.927 44.585 108.53 44.585C106.086 44.585 103.771 44.8434 101.586 45.3604C99.4001 45.8539 97.3792 46.5237 95.5226 47.3697C93.6896 48.1922 92.0329 49.1557 90.5524 50.2602C89.0719 51.3411 87.8146 52.4692 86.7807 53.6442C85.7701 54.8192 84.9829 55.9942 84.4189 57.1691C83.8784 58.3442 83.6082 59.4369 83.6082 60.4475C83.6082 61.5285 83.9019 62.3745 84.4894 62.9854C85.0769 63.5729 85.9582 63.8667 87.1331 63.8667C88.0027 63.8667 88.7312 63.667 89.3186 63.2674C89.9061 62.8679 90.4349 62.351 90.9049 61.7164C91.3985 61.082 91.8684 60.3534 92.3149 59.5309C92.7614 58.7084 93.2549 57.8624 93.7954 56.9929C94.3594 56.1234 95.0174 55.2774 95.7694 54.4549C96.5449 53.6324 97.4848 52.904 98.5894 52.2694C99.7174 51.635 101.045 51.1179 102.573 50.7185C104.124 50.3189 105.968 50.1192 108.107 50.1192C110.01 50.1192 111.644 50.3425 113.007 50.789C114.393 51.2354 115.521 51.8347 116.391 52.5867C117.284 53.3387 117.93 54.2199 118.329 55.2304C118.752 56.241 118.964 57.3102 118.964 58.4382C118.964 60.0127 118.564 61.6342 117.765 63.3026C116.99 64.9711 115.921 66.4869 114.558 67.8499C113.195 69.2129 111.597 70.3409 109.764 71.234C107.954 72.1034 106.027 72.5382 103.983 72.5382H103.489Z" fill="white"/>
<g style="mix-blend-mode:multiply" opacity="0.2">
<path fill-rule="evenodd" clip-rule="evenodd" d="M106.5 113.163C128.958 113.163 147.163 94.9576 147.163 72.5C147.163 50.0424 128.958 31.837 106.5 31.837C84.0424 31.837 65.837 50.0424 65.837 72.5C65.837 94.9576 84.0424 113.163 106.5 113.163ZM106.5 116C130.524 116 150 96.5244 150 72.5C150 48.4756 130.524 29 106.5 29C82.4756 29 63 48.4756 63 72.5C63 96.5244 82.4756 116 106.5 116Z" fill="#191326"/>
</g>
</g>
<defs>
<linearGradient id="paint0_linear" x1="105.757" y1="87.7742" x2="92.3808" y2="138.886" gradientUnits="userSpaceOnUse">
<stop stop-color="#404042"/>
<stop offset="1" stop-color="#48484B"/>
</linearGradient>
<linearGradient id="paint1_linear" x1="46.5673" y1="105.096" x2="41.7353" y2="123.129" gradientUnits="userSpaceOnUse">
<stop stop-color="#404042"/>
<stop offset="1" stop-color="#48484B"/>
</linearGradient>
<linearGradient id="paint2_linear" x1="73.4948" y1="80.1687" x2="89.0896" y2="164.62" gradientUnits="userSpaceOnUse">
<stop stop-color="#404042"/>
<stop offset="1" stop-color="#48484B"/>
</linearGradient>
<linearGradient id="paint3_linear" x1="213.688" y1="116" x2="213.688" y2="29" gradientUnits="userSpaceOnUse">
<stop stop-color="#9E00F6"/>
<stop offset="1" stop-color="#EB627B"/>
</linearGradient>
<clipPath id="clip0">
<rect width="160" height="160" fill="white"/>
</clipPath>
</defs>
</svg>

<svg xmlns="http://www.w3.org/2000/svg" width="160" height="160" fill="none"  xmlns:v="https://vecta.io/nano"><g clip-path="url(#E)"><g fill="#606063"><path d="M48.045 119.028c-3.178 12.144 15 27.421 40.602 34.121s48.934 2.287 52.112-9.858-15-27.421-40.602-34.122-48.934-2.286-52.112 9.859z"/><path d="M136.924 149.273l15.422-16.285-109.354-28.619 5.721 21.818 88.211 23.086z"/><path d="M49.934 108.293L8.072 97.338c-1.814-.475-3.66.654-4.063 2.486l-.468 2.129a8.26 8.26 0 0 0 5.746 9.7l41.812 12.239-1.166-15.599z"/></g><path d="M43.203 98.71c-3.694 14.114 18.324 32.101 49.178 40.176s58.86 3.178 62.554-10.936-18.324-32.101-49.178-40.176-58.861-3.179-62.554 10.935z" fill="url(#A)"/><g fill-rule="evenodd"><path d="M127.673 123.286c7.098 5.22 11.246 10.866 11.865 15.871l2.978-.368c-.772-6.238-5.737-12.531-13.066-17.92-7.389-5.435-17.439-10.148-28.913-13.151s-22.544-3.817-31.649-2.699c-9.029 1.109-16.44 4.163-20.168 9.223l2.415 1.779c2.992-4.06 9.373-6.95 18.119-8.024 8.67-1.064 19.354-.299 30.524 2.624s20.859 7.49 27.896 12.665z" fill="#606063"/><path d="M56.734 118.739c-8.721-7.124-11.998-14.041-10.629-19.27s7.614-9.654 18.706-11.593c10.807-1.889 25.078-1.154 40.186 2.8s27.911 10.304 36.406 17.245c8.721 7.124 11.998 14.041 10.63 19.27s-7.614 9.653-18.707 11.593c-10.806 1.889-25.078 1.153-40.186-2.8s-27.91-10.304-36.406-17.245zm35.646 20.147c-30.854-8.075-52.872-26.062-49.178-40.176s31.7-19.01 62.554-10.935 52.872 26.062 49.178 40.176-31.7 19.01-62.554 10.936z" fill="#979797"/><path d="M45.167 124.049l-4.937-19.123 2.905-.75 4.937 19.123-2.905.75z" fill="url(#B)"/><path d="M43.469 106.189l-.128-.443-.202-.817-.142-.54c.022-.012.03-.019.028-.027l-.004-.025-.12-.794-.022-.191c-.072-.663-.096-1.321-.071-1.974.035-.903.166-1.793.395-2.668 3.694-14.114 31.7-19.01 62.555-10.936s52.872 26.062 49.178 40.176a12.4 12.4 0 0 1-.963 2.519 13.7 13.7 0 0 1-1.635 2.476l-.016.019c.011.02.014.025.015.029l-.611.651-12.932 13.655c-6.807 9.031-27.596 11.752-50.146 5.85-22.303-5.837-38.971-18.182-40.797-29.295-.093-.569-.484-1.054-1.037-1.215L10.127 111.91a8.26 8.26 0 0 1-5.762-9.635l.459-2.172c.39-1.845 2.242-2.99 4.066-2.514l34.249 8.931a.27.27 0 0 0 .331-.331zm-3.657-3.636c-.064-1.544.091-3.085.488-4.603 2.325-8.885 11.93-13.965 23.478-15.984 11.834-2.069 26.992-1.215 42.738 2.906s29.38 10.802 38.683 18.402c9.078 7.417 14.963 16.551 12.638 25.436-.557 2.129-1.552 4.064-2.901 5.789a3.08 3.08 0 0 1-.425.566l-13.429 14.181c-4.171 5.406-12.026 8.46-21.098 9.556-9.3 1.124-20.517.28-32.096-2.751-11.453-2.997-21.548-7.685-29.078-13.141-7.08-5.13-12.321-11.262-13.743-17.657L9.285 114.789a11.26 11.26 0 0 1-7.855-13.134l.459-2.173c.744-3.519 4.277-5.704 7.758-4.796l30.165 7.867z" fill="url(#C)"/></g><circle cx="57" cy="29" r="29" fill="#f0b90b"/><path d="M46.185 29l-4.437 4.468L37.28 29l4.468-4.468L46.185 29zM57 18.185l7.642 7.642 4.468-4.468-7.642-7.611L57 9.28 44.921 21.358l4.468 4.468L57 18.185zm15.252 6.347L67.815 29l4.468 4.468L76.72 29l-4.468-4.468zM57 39.815l-7.642-7.642-4.437 4.468L57 48.72l12.109-12.109-4.468-4.437L57 39.815zm0-6.347L61.468 29 57 24.532 52.532 29 57 33.468z" fill="#fffdfa"/><g style="mix-blend-mode:multiply" opacity=".1"><path fill-rule="evenodd" d="M57 55c14.359 0 26-11.641 26-26S71.359 3 57 3 31 14.641 31 29s11.641 26 26 26zm0 3c16.016 0 29-12.984 29-29S73.016 0 57 0 28 12.984 28 29s12.984 29 29 29z" fill="#191326"/></g><path d="M106.5 29c24.024 0 43.5 19.476 43.5 43.5S130.524 116 106.5 116 63 96.524 63 72.5 82.476 29 106.5 29z" fill="url(#D)"/><path d="M103.489 72.538a2.56 2.56 0 0 1-.423-.035l1.763-3.772 1.48-3.419 1.022-2.75c.259-.799.388-1.422.388-1.868s-.07-.811-.211-1.093c-.141-.305-.306-.529-.494-.67a1.35 1.35 0 0 0-.634-.317c-.235-.071-.435-.106-.6-.106-.611 0-1.304.352-2.079 1.058-.752.681-1.563 1.598-2.433 2.749l-2.643 3.983-2.679 4.618-10.399 19.035a7.13 7.13 0 0 0-.599 1.586c-.141.564-.212 1.116-.212 1.657a5.53 5.53 0 0 0 .141 1.198c.117.423.305.811.564 1.163s.623.646 1.093.881 1.081.352 1.833.352c.916 0 1.763-.329 2.538-.987s1.504-1.516 2.186-2.573c.681-1.081 1.304-2.291 1.868-3.631l1.621-4.124 1.445-4.019 1.304-3.419c.752 2.444 1.609 4.77 2.573 6.98.963 2.186 2.033 4.101 3.208 5.746s2.479 2.949 3.912 3.913 2.997 1.445 4.689 1.445c2.068 0 4.253-.517 6.556-1.551 2.327-1.058 4.7-2.726 7.121-5.006.822-.776 1.398-1.516 1.727-2.221.352-.728.529-1.363.529-1.903 0-.564-.165-1.011-.494-1.339a1.63 1.63 0 0 0-1.198-.494c-.752 0-1.493.411-2.221 1.234a13.1 13.1 0 0 1-2.75 2.714c-.893.681-2.009 1.304-3.348 1.868s-2.867.846-4.583.846h-.493a4.31 4.31 0 0 1-.529-.035c-.94-.07-1.833-.541-2.679-1.41s-1.622-1.915-2.327-3.137c-.681-1.246-1.269-2.55-1.762-3.913-.47-1.386-.811-2.632-1.022-3.737 1.504-.258 3.055-.681 4.653-1.269 1.621-.587 3.196-1.304 4.723-2.15a29.9 29.9 0 0 0 4.301-2.891c1.363-1.104 2.549-2.303 3.56-3.595a17.45 17.45 0 0 0 2.397-4.195 12.43 12.43 0 0 0 .916-4.724c0-2.444-.505-4.582-1.515-6.415a13.12 13.12 0 0 0-4.019-4.547c-1.692-1.222-3.642-2.139-5.851-2.749-2.186-.611-4.477-.916-6.874-.916-2.444 0-4.759.258-6.944.775-2.186.494-4.207 1.163-6.063 2.009-1.833.822-3.49 1.786-4.97 2.89-1.481 1.081-2.738 2.209-3.772 3.384-1.011 1.175-1.798 2.35-2.362 3.525-.54 1.175-.811 2.268-.811 3.278 0 1.081.294 1.927.881 2.538.587.587 1.469.881 2.644.881.87 0 1.598-.2 2.186-.599s1.116-.916 1.586-1.551c.494-.634.963-1.363 1.41-2.185l1.481-2.538c.564-.87 1.222-1.715 1.974-2.538.775-.823 1.715-1.551 2.82-2.186 1.128-.634 2.456-1.151 3.984-1.551 1.551-.4 3.395-.599 5.534-.599 1.903 0 3.537.223 4.9.67 1.386.446 2.514 1.046 3.384 1.798.893.752 1.539 1.633 1.938 2.644.423 1.011.635 2.08.635 3.208 0 1.575-.4 3.196-1.199 4.864-.775 1.669-1.844 3.184-3.207 4.547s-2.961 2.491-4.794 3.384c-1.81.869-3.737 1.304-5.781 1.304h-.494z" fill="#fff"/><g style="mix-blend-mode:multiply" opacity=".2"><path fill-rule="evenodd" d="M106.5 113.163c22.458 0 40.663-18.205 40.663-40.663S128.958 31.837 106.5 31.837 65.837 50.042 65.837 72.5s18.205 40.663 40.663 40.663zm0 2.837c24.024 0 43.5-19.476 43.5-43.5S130.524 29 106.5 29 63 48.476 63 72.5 82.476 116 106.5 116z" fill="#191326"/></g></g><defs><linearGradient id="A" x1="105.757" y1="87.774" x2="92.381" y2="138.886" gradientUnits="userSpaceOnUse"><stop stop-color="#404042"/><stop offset="1" stop-color="#48484b"/></linearGradient><linearGradient id="B" x1="46.567" y1="105.096" x2="41.735" y2="123.129" gradientUnits="userSpaceOnUse"><stop stop-color="#404042"/><stop offset="1" stop-color="#48484b"/></linearGradient><linearGradient id="C" x1="73.495" y1="80.169" x2="89.09" y2="164.62" gradientUnits="userSpaceOnUse"><stop stop-color="#404042"/><stop offset="1" stop-color="#48484b"/></linearGradient><linearGradient id="D" x1="213.688" y1="116" x2="213.688" y2="29" gradientUnits="userSpaceOnUse"><stop stop-color="#9e00f6"/><stop offset="1" stop-color="#eb627b"/></linearGradient><clipPath id="E"><path fill="#fff" d="M0 0h160v160H0z"/></clipPath></defs></svg>
